Icons/Paper.svg

<svg xmlns="http://www.w3.org/2000/svg" xml:space="preserve" fill-rule="evenodd" stroke-linecap="round" stroke-linejoin="round" stroke-miterlimit="1.5" clip-rule="evenodd" viewBox="0 0 24 24"><path fill="none" d="M0 0h24v24H0z"/><path fill="none" stroke="#000" stroke-width="2" d="m12 18 6 2 3-17L2 14l6 2"/><path stroke="#000" stroke-width="2" d="m9 21-1-5 4 2-3 3Z"/><path d="m12 18-4-2 10-9-6 11Z"/></svg>

<?xml version="1.0" encoding="UTF-8" standalone="no"?>
<!DOCTYPE svg PUBLIC "-//W3C//DTD SVG 1.1//EN" "http://www.w3.org/Graphics/SVG/1.1/DTD/svg11.dtd">
<svg width="100%" height="100%" viewBox="0 0 24 24" version="1.1" xmlns="http://www.w3.org/2000/svg" xmlns:xlink="http://www.w3.org/1999/xlink" xml:space="preserve" xmlns:serif="http://www.serif.com/" style="fill-rule:evenodd;clip-rule:evenodd;stroke-linecap:round;stroke-linejoin:round;stroke-miterlimit:1.5;">
    <rect id="Paper" x="0" y="0" width="24" height="24" style="fill:none;"/>
    <path d="M12,18L18,20L21,3L2,14L8,16" style="fill:none;stroke:#000;stroke-width:2px;"/>
    <path d="M9,21L8,16L12,18L9,21Z" style="stroke:#000;stroke-width:2px;"/>
    <path d="M12,18L8,16L18,7L12,18Z"/>
</svg>
